!!!OTL: The Mary L. MacKay
!!!ONM: 132.
**kern
*clefG2
!Modal -- Conklin/Pearce 
*k[b-e-]
*c:
*M2/4
*MM76
{4.b-
8a
=2
8.g
16a
8.g
16f
=3
8.d
16c
8.B-}
{16d
=4
8.f
16d
8.c
16c
=5
4.c}
{8f
=6
8.g
16g
8.g
16f
=7
8.g
16cc
8.cc}
{16dd
=8
8.cc
16b-
8.g
16a
=9
4.b-}
{8a
=10
8.g
16a
8.g
16f
=11
(8.g
16cc
8.cc)}
{16dd
=12
8.cc
16b-
8.g
16a
=13
4b-}
{8.cc
16b-
=14
8.g
16g
8.g
16f
=15
8.d
16c}
{8.B-
16d
=16
8.f
16d
8.c
16c
=17
2c}
==
*-
!!!CNT: Folksongs of Maritime Canada
!!!MRD: 1928///-1932///
!!!OCL: Helen Creighton
!!!YOR: Songs and Ballads from Nova Scotia
!!!PPR: J.M. Dent & Sons, Limited
!!!PPP: Toronto, Canada
!!!PDT: 1932///
!!!reprint: Dover Publications, 1992: ISBN 0-486-21703-5
!!!ENC1: Craig Stuart Sapp (music and bibliographic data)                       
!!!ENC2: Marcus Pearce (phrase markings and key designations)                   
!!!ENC3: Darrell Conklin (phrase markings and key designations)   
!!!END: 2002/04/10/
!!!EEV: 2004/06/05
!!!MPN: Mr. Edmund Henneberry
!!!PPG: 284
!!!EFL: 134/152
!!!ARE: Canada; Nova Scotia
!!!verses: 13
!!!VTS: 1439639096
